Origami/32x32/apps/cmyktool.svg

<svg width="32" height="32" version="1" xmlns="http://www.w3.org/2000/svg">
 <path d="m15.999564 2.0000296c-0.785749 0-1.572023 0.2928722-2.15939 0.8802248l-11.959962 11.961296c-1.1747339 1.174704-1.1730675 3.140583 0.00171 4.315288l11.959966 11.961295c1.174734 1.174706 3.142365 1.176372 4.317099 0.0017l11.959963-11.96128c1.174733-1.174705 1.174734-3.142267 0-4.316972l-11.959994-11.961327c-0.587367-0.5873525-1.373642-0.8802248-2.159392-0.8802248z" style="opacity:.2"/>
 <path d="m15.999564 1.0000138c-0.785749 0-1.572023 0.2928722-2.15939 0.8802248l-11.959962 11.961295c-1.1747339 1.174704-1.1730675 3.140583 0.00171 4.315288l11.959966 11.961295c1.174734 1.174706 3.142365 1.176372 4.317099 0.0017l11.959963-11.96128c1.174733-1.174705 1.174734-3.142267 0-4.316972l-11.959994-11.961326c-0.587367-0.5873525-1.373642-0.8802248-2.159392-0.8802248z" style="fill:#696853"/>
 <path d="m16 5.0002895c-0.261915 0-0.524915 0.097185-0.720703 0.2929688l-3.986328 3.9882812c-0.391577 0.3915661-0.389681 1.0459325 2e-3 1.4374995l3.986328 3.986328c0.391577 0.391567 1.045924 0.393464 1.4375 2e-3l3.988281-3.988281c0.391576-0.391567 0.391576-1.0459326 0-1.4374995l-3.988328-3.9883282c-0.195789-0.1957837-0.456835-0.2929688-0.71875-0.2929688zm-7 6.9999995c-0.2617155 1.46e-4 -0.5229655 0.0991-0.71875 0.294922l-3.9863281 3.986328c-0.3915683 0.391577-0.393466 1.045921-0.00195 1.4375l3.9882781 3.988281c0.3915684 0.391578 1.0459313 0.391578 1.4375 0l3.988281-3.988281c0.195784-0.195788 0.292969-0.456832 0.292969-0.71875 0-0.261916-0.09718-0.524915-0.292969-0.720703l-3.988281-3.986328c-0.1957841-0.195789-0.4570345-0.293115-0.71875-0.292969zm14 0c-0.261715 1.46e-4 -0.522966 0.0991-0.71875 0.294922l-3.986328 3.986328c-0.391568 0.391577-0.393466 1.045921-2e-3 1.4375l3.988281 3.988281c0.391569 0.391578 1.045931 0.391578 1.4375 0l3.988281-3.988281c0.195832-0.19579 0.293016-0.456832 0.293016-0.71875 0-0.261916-0.097181-0.524915-0.292969-0.720703l-3.988281-3.986328c-0.195784-0.195789-0.457035-0.293115-0.71875-0.292969zm-7 7c-0.261915 0-0.524915 0.09718-0.720703 0.292969l-3.986328 3.988281c-0.391577 0.391565-0.389681 1.045932 2e-3 1.4375l3.986328 3.986328c0.391577 0.391567 1.045924 0.393464 1.4375 2e-3l3.988281-3.988281c0.391576-0.391567 0.391576-1.045934 0-1.4375l-3.988328-3.988328c-0.195788-0.195784-0.456833-0.292969-0.71875-0.292969z" style="opacity:.2"/>
 <path d="m15.999833 4.0000392c-0.261915 0-0.524006 0.097624-0.719794 0.2934074l-3.986641 3.9870853c-0.391577 0.3915661-0.391022 1.0468572 6.12e-4 1.4384242l3.98664 3.9870839c0.391577 0.391567 1.047452 0.392122 1.439028 6.11e-4l3.98664-3.9870839c0.391576-0.391567 0.391576-1.0474184 0-1.4389853l-3.98669-3.9871352c-0.195789-0.1957836-0.45788-0.2934074-0.719795-0.2934074z" style="fill:#3fa7e2"/>
 <path d="m15.999833 18.00004c-0.261915 0-0.524006 0.09762-0.719794 0.293406l-3.986641 3.987086c-0.391577 0.391565-0.391022 1.046856 6.12e-4 1.438424l3.98664 3.987084c0.391577 0.391567 1.047452 0.392122 1.439028 6.11e-4l3.98664-3.987084c0.391576-0.391567 0.391576-1.047419 0-1.438985l-3.986667-3.987112c-0.195788-0.195784-0.457878-0.293408-0.719795-0.293408z" style="fill:#3f3f3f"/>
 <path d="m28 15.999812c0-0.261916-0.09762-0.524008-0.293408-0.719796l-3.987101-3.986656c-0.391568-0.391578-1.046861-0.391023-1.43843 6.11e-4l-3.9871 3.986657c-0.391568 0.391577-0.392124 1.047454-6.11e-4 1.439033l3.987099 3.986655c0.391569 0.391578 1.047424 0.391578 1.438993 0l3.98715-3.986705c0.195785-0.19579 0.293408-0.457881 0.293408-0.719799z" style="fill:#f1ca42"/>
 <path d="m14 15.999831c0-0.261916-0.09762-0.524008-0.293409-0.719796l-3.9870995-3.986656c-0.3915681-0.391578-1.0468614-0.391023-1.4384304 6.11e-4l-3.9870999 3.986657c-0.3915683 0.391577-0.392124 1.047455-6.112e-4 1.439034l3.9870999 3.986655c0.3915684 0.391578 1.0474229 0.391578 1.4389916 0l3.9871275-3.986684c0.195784-0.195788 0.293408-0.45788 0.293408-0.719798z" style="fill:#ea72bb"/>
 <path d="M 16 1 C 15.214251 1 14.427211 1.2935068 13.839844 1.8808594 L 1.8808594 13.841797 C 1.1677672 14.554871 0.89374604 15.557797 1.046875 16.5 C 1.1451355 15.88944 1.4188022 15.303842 1.8808594 14.841797 L 13.839844 2.8808594 C 14.427211 2.2935068 15.214251 2 16 2 C 16.78575 2 17.570836 2.2935069 18.158203 2.8808594 L 30.119141 14.841797 C 30.581198 15.303843 30.854549 15.889124 30.953125 16.5 C 31.105169 15.557786 30.831817 14.554456 30.119141 13.841797 L 18.158203 1.8808594 C 17.570836 1.2935069 16.78575 1 16 1 z" style="fill:#ffffff;opacity:.1"/>
 <path d="m16 4c-0.261915 0-0.524915 0.0971854-0.720703 0.2929688l-3.986328 3.9882812c-0.327462 0.3274531-0.363274 0.8311117-0.142578 1.21875 0.042853-0.0752027 0.078985-0.1551585 0.142578-0.21875l3.986328-3.9882812c0.195788-0.1957838 0.458788-0.2929688 0.720703-0.2929688s0.522961 0.0971851 0.71875 0.2929688l3.988281 3.9882812c0.063855 0.0638528 0.101503 0.1431998 0.144531 0.21875 0.220228-0.3876381 0.182931-0.8912962-0.144531-1.21875l-3.988281-3.9882812c-0.195789-0.1957837-0.456835-0.2929688-0.71875-0.2929688zm-7 7c-0.2617155 1.46e-4 -0.5229655 0.099105-0.71875 0.294922l-3.9863281 3.986328c-0.3281167 0.328124-0.3658444 0.832781-0.1445313 1.220703 0.0432511-0.07608 0.0802807-0.156451 0.1445313-0.220703l3.9863281-3.986328c0.1957845-0.195822 0.4570345-0.294776 0.71875-0.294922s0.5229659 0.09718 0.71875 0.292969l3.988281 3.986328c0.064252 0.064252 0.101468 0.144388 0.144531 0.220703 0.088344-0.155773 0.148438-0.323852 0.148438-0.5 0-0.261916-0.09718-0.524915-0.292969-0.720703l-3.988281-3.986328c-0.1957841-0.195789-0.4570345-0.293115-0.71875-0.292969zm14 0c-0.261715 1.46e-4 -0.522966 0.099105-0.71875 0.294922l-3.986328 3.986328c-0.328117 0.328124-0.365844 0.832781-0.144531 1.220703 0.043251-0.07608 0.08028-0.156451 0.144531-0.220703l3.986328-3.986328c0.195784-0.195822 0.457035-0.294776 0.71875-0.294922s0.522966 0.09718 0.71875 0.292969l3.988281 3.986328c0.064252 0.064252 0.101468 0.144388 0.144531 0.220703 0.088344-0.155773 0.148438-0.323852 0.148438-0.5 0-0.261916-0.097181-0.524915-0.292969-0.720703l-3.988281-3.986328c-0.195784-0.195789-0.457035-0.293115-0.71875-0.292969zm-7 7c-0.261915 0-0.524915 0.097183-0.720703 0.292969l-3.986328 3.988281c-0.327462 0.327452-0.363274 0.831111-0.142578 1.21875 0.042853-0.075203 0.078985-0.155159 0.142578-0.21875l3.986328-3.988281c0.195788-0.195789 0.458788-0.292969 0.720703-0.292969 0.261917 0 0.522962 0.097185 0.71875 0.292969l3.988281 3.988281c0.063855 0.063853 0.101503 0.1432 0.144531 0.21875 0.220228-0.387638 0.182931-0.891297-0.144531-1.21875l-3.988281-3.988281c-0.195788-0.195784-0.456833-0.292969-0.71875-0.292969z" style="fill:#ffffff;opacity:.1"/>
</svg>

<svg xmlns="http://www.w3.org/2000/svg" width="32" height="32" version="1">
 <path style="opacity:0.2" d="m 15.999564,2.0000296 c -0.785749,0 -1.572023,0.2928722 -2.15939,0.8802248 L 1.8802118,14.84155 c -1.17473393,1.174704 -1.17306751,3.140583 0.00171,4.315288 L 13.841888,31.118133 c 1.174734,1.174706 3.142365,1.176372 4.317099,0.0017 L 30.11895,19.158553 c 1.174733,-1.174705 1.174734,-3.142267 0,-4.316972 L 18.158956,2.8802544 C 17.571589,2.2929019 16.785314,2.0000296 15.999564,2.0000296 Z"/>
 <path style="fill:#696853" d="m 15.999564,1.0000138 c -0.785749,0 -1.572023,0.2928722 -2.15939,0.8802248 L 1.8802118,13.841534 c -1.17473393,1.174704 -1.17306751,3.140583 0.00171,4.315288 L 13.841888,30.118117 c 1.174734,1.174706 3.142365,1.176372 4.317099,0.0017 L 30.11895,18.158537 c 1.174733,-1.174705 1.174734,-3.142267 0,-4.316972 L 18.158956,1.8802386 C 17.571589,1.2928861 16.785314,1.0000138 15.999564,1.0000138 Z"/>
 <path style="opacity:0.2" d="m 16,5.0002895 c -0.261915,0 -0.524915,0.097185 -0.720703,0.2929688 l -3.986328,3.9882812 c -0.391577,0.3915661 -0.389681,1.0459325 0.002,1.4374995 l 3.986328,3.986328 c 0.391577,0.391567 1.045924,0.393464 1.4375,0.002 l 3.988281,-3.988281 c 0.391576,-0.391567 0.391576,-1.0459326 0,-1.4374995 L 16.71875,5.2932583 C 16.522961,5.0974746 16.261915,5.0002895 16,5.0002895 Z M 9,12.000289 c -0.2617155,1.46e-4 -0.5229655,0.0991 -0.71875,0.294922 l -3.9863281,3.986328 c -0.3915683,0.391577 -0.393466,1.045921 -0.00195,1.4375 L 8.28125,21.70732 c 0.3915684,0.391578 1.0459313,0.391578 1.4375,0 l 3.988281,-3.988281 C 13.902815,17.523251 14,17.262207 14,17.000289 14,16.738373 13.90282,16.475374 13.707031,16.279586 L 9.71875,12.293258 C 9.5229659,12.097469 9.2617155,12.000143 9,12.000289 Z m 14,0 c -0.261715,1.46e-4 -0.522966,0.0991 -0.71875,0.294922 l -3.986328,3.986328 c -0.391568,0.391577 -0.393466,1.045921 -0.002,1.4375 l 3.988281,3.988281 c 0.391569,0.391578 1.045931,0.391578 1.4375,0 l 3.988281,-3.988281 C 27.902816,17.523249 28,17.262207 28,17.000289 28,16.738373 27.902819,16.475374 27.707031,16.279586 L 23.71875,12.293258 C 23.522966,12.097469 23.261715,12.000143 23,12.000289 Z m -7,7 c -0.261915,0 -0.524915,0.09718 -0.720703,0.292969 l -3.986328,3.988281 c -0.391577,0.391565 -0.389681,1.045932 0.002,1.4375 l 3.986328,3.986328 c 0.391577,0.391567 1.045924,0.393464 1.4375,0.002 l 3.988281,-3.988281 c 0.391576,-0.391567 0.391576,-1.045934 0,-1.4375 L 16.71875,19.293258 C 16.522962,19.097474 16.261917,19.000289 16,19.000289 Z"/>
 <path style="fill:#3fa7e2" d="m 15.999833,4.0000392 c -0.261915,0 -0.524006,0.097624 -0.719794,0.2934074 l -3.986641,3.9870853 c -0.391577,0.3915661 -0.391022,1.0468572 6.12e-4,1.4384242 l 3.98664,3.9870839 c 0.391577,0.391567 1.047452,0.392122 1.439028,6.11e-4 l 3.98664,-3.9870839 c 0.391576,-0.391567 0.391576,-1.0474184 0,-1.4389853 L 16.719628,4.2934466 C 16.523839,4.097663 16.261748,4.0000392 15.999833,4.0000392 Z"/>
 <path style="fill:#3f3f3f" d="m 15.999833,18.00004 c -0.261915,0 -0.524006,0.09762 -0.719794,0.293406 l -3.986641,3.987086 c -0.391577,0.391565 -0.391022,1.046856 6.12e-4,1.438424 l 3.98664,3.987084 c 0.391577,0.391567 1.047452,0.392122 1.439028,6.11e-4 l 3.98664,-3.987084 c 0.391576,-0.391567 0.391576,-1.047419 0,-1.438985 L 16.719651,18.29347 c -0.195788,-0.195784 -0.457878,-0.293408 -0.719795,-0.293408 z"/>
 <path style="fill:#f1ca42" d="m 28,15.999812 c 0,-0.261916 -0.09762,-0.524008 -0.293408,-0.719796 L 23.719491,11.29336 c -0.391568,-0.391578 -1.046861,-0.391023 -1.43843,6.11e-4 l -3.9871,3.986657 c -0.391568,0.391577 -0.392124,1.047454 -6.11e-4,1.439033 l 3.987099,3.986655 c 0.391569,0.391578 1.047424,0.391578 1.438993,0 l 3.98715,-3.986705 C 27.902377,16.523821 28,16.26173 28,15.999812 Z"/>
 <path style="fill:#ea72bb" d="m 14,15.999831 c 0,-0.261916 -0.09762,-0.524008 -0.293409,-0.719796 L 9.7194915,11.293379 C 9.3279234,10.901801 8.6726301,10.902356 8.2810611,11.29399 l -3.9870999,3.986657 c -0.3915683,0.391577 -0.392124,1.047455 -6.112e-4,1.439034 l 3.9870999,3.986655 c 0.3915684,0.391578 1.0474229,0.391578 1.4389916,0 l 3.9871275,-3.986684 c 0.195784,-0.195788 0.293408,-0.45788 0.293408,-0.719798 z"/>
 <path style="fill:#ffffff;opacity:0.1" d="M 16 1 C 15.214251 1 14.427211 1.2935068 13.839844 1.8808594 L 1.8808594 13.841797 C 1.1677672 14.554871 0.89374604 15.557797 1.046875 16.5 C 1.1451355 15.88944 1.4188022 15.303842 1.8808594 14.841797 L 13.839844 2.8808594 C 14.427211 2.2935068 15.214251 2 16 2 C 16.78575 2 17.570836 2.2935069 18.158203 2.8808594 L 30.119141 14.841797 C 30.581198 15.303843 30.854549 15.889124 30.953125 16.5 C 31.105169 15.557786 30.831817 14.554456 30.119141 13.841797 L 18.158203 1.8808594 C 17.570836 1.2935069 16.78575 1 16 1 z"/>
 <path style="fill:#ffffff;opacity:0.1" d="M 16 4 C 15.738085 4 15.475085 4.0971854 15.279297 4.2929688 L 11.292969 8.28125 C 10.965507 8.6087031 10.929695 9.1123617 11.150391 9.5 C 11.193244 9.4247973 11.229376 9.3448415 11.292969 9.28125 L 15.279297 5.2929688 C 15.475085 5.097185 15.738085 5 16 5 C 16.261915 5 16.522961 5.0971851 16.71875 5.2929688 L 20.707031 9.28125 C 20.770886 9.3451028 20.808534 9.4244498 20.851562 9.5 C 21.07179 9.1123619 21.034493 8.6087038 20.707031 8.28125 L 16.71875 4.2929688 C 16.522961 4.0971851 16.261915 4 16 4 z M 9 11 C 8.7382845 11.000146 8.4770345 11.099105 8.28125 11.294922 L 4.2949219 15.28125 C 3.9668052 15.609374 3.9290775 16.114031 4.1503906 16.501953 C 4.1936417 16.425873 4.2306713 16.345502 4.2949219 16.28125 L 8.28125 12.294922 C 8.4770345 12.0991 8.7382845 12.000146 9 12 C 9.2617155 11.999854 9.5229659 12.09718 9.71875 12.292969 L 13.707031 16.279297 C 13.771283 16.343549 13.808499 16.423685 13.851562 16.5 C 13.939906 16.344227 14 16.176148 14 16 C 14 15.738084 13.90282 15.475085 13.707031 15.279297 L 9.71875 11.292969 C 9.5229659 11.09718 9.2617155 10.999854 9 11 z M 23 11 C 22.738285 11.000146 22.477034 11.099105 22.28125 11.294922 L 18.294922 15.28125 C 17.966805 15.609374 17.929078 16.114031 18.150391 16.501953 C 18.193642 16.425873 18.230671 16.345502 18.294922 16.28125 L 22.28125 12.294922 C 22.477034 12.0991 22.738285 12.000146 23 12 C 23.261715 11.999854 23.522966 12.09718 23.71875 12.292969 L 27.707031 16.279297 C 27.771283 16.343549 27.808499 16.423685 27.851562 16.5 C 27.939906 16.344227 28 16.176148 28 16 C 28 15.738084 27.902819 15.475085 27.707031 15.279297 L 23.71875 11.292969 C 23.522966 11.09718 23.261715 10.999854 23 11 z M 16 18 C 15.738085 18 15.475085 18.097183 15.279297 18.292969 L 11.292969 22.28125 C 10.965507 22.608702 10.929695 23.112361 11.150391 23.5 C 11.193244 23.424797 11.229376 23.344841 11.292969 23.28125 L 15.279297 19.292969 C 15.475085 19.09718 15.738085 19 16 19 C 16.261917 19 16.522962 19.097185 16.71875 19.292969 L 20.707031 23.28125 C 20.770886 23.345103 20.808534 23.42445 20.851562 23.5 C 21.07179 23.112362 21.034493 22.608703 20.707031 22.28125 L 16.71875 18.292969 C 16.522962 18.097185 16.261917 18 16 18 z"/>
</svg>
